dist/img/svg/property__item-icon--3.svg

<svg width="48" height="48" viewBox="0 0 48 48" fill="none" xmlns="http://www.w3.org/2000/svg">
<circle cx="24" cy="24" r="24" fill="#1F2120"/>
<path d="M24 13C22.1564 13 20.6595 14.2936 20.2031 16H15V35H20H22C22 33.8833 22.8833 33 24 33C25.1167 33 26 33.8833 26 35H27H28H33V16H27.7969C27.3405 14.2936 25.8436 13 24 13ZM24 15C25.1167 15 26 15.8833 26 17V31.6191C25.4019 31.2617 24.7427 31 24 31C23.2573 31 22.5981 31.2617 22 31.6191V17C22 15.8833 22.8833 15 24 15ZM17 18H20V33H17V18ZM28 18H31V33H28V18Z" fill="white"/>
</svg>

<svg width="48" height="48" viewBox="0 0 48 48" fill="none" xmlns="http://www.w3.org/2000/svg"><circle cx="24" cy="24" r="24" fill="#1F2120"/><path d="M24 13c-1.844 0-3.34 1.294-3.797 3H15v19h7c0-1.117.883-2 2-2s2 .883 2 2h7V16h-5.203c-.457-1.706-1.953-3-3.797-3zm0 2c1.117 0 2 .883 2 2v14.62c-.598-.358-1.257-.62-2-.62-.743 0-1.402.262-2 .62V17c0-1.117.883-2 2-2zm-7 3h3v15h-3V18zm11 0h3v15h-3V18z" fill="#fff"/></svg>
